images/3246419.svg

<?xml version="1.0" encoding="UTF-8"?>
<svg xmlns="http://www.w3.org/2000/svg" xmlns:xlink="http://www.w3.org/1999/xlink" width="300pt" height="300pt" viewBox="0 0 300 300" version="1.1">
<defs>
<g>
<symbol overflow="visible" id="glyph0-0">
<path style="stroke:none;" d="M 0.796875 2.828125 L 0.796875 -11.28125 L 8.796875 -11.28125 L 8.796875 2.828125 Z M 1.703125 1.9375 L 7.90625 1.9375 L 7.90625 -10.390625 L 1.703125 -10.390625 Z M 1.703125 1.9375 "/>
</symbol>
<symbol overflow="visible" id="glyph0-1">
<path style="stroke:none;" d="M 6.3125 -10.59375 C 5.164062 -10.59375 4.253906 -10.164062 3.578125 -9.3125 C 2.898438 -8.457031 2.5625 -7.296875 2.5625 -5.828125 C 2.5625 -4.359375 2.898438 -3.195312 3.578125 -2.34375 C 4.253906 -1.488281 5.164062 -1.0625 6.3125 -1.0625 C 7.457031 -1.0625 8.363281 -1.488281 9.03125 -2.34375 C 9.695312 -3.195312 10.03125 -4.359375 10.03125 -5.828125 C 10.03125 -7.296875 9.695312 -8.457031 9.03125 -9.3125 C 8.363281 -10.164062 7.457031 -10.59375 6.3125 -10.59375 Z M 6.3125 -11.875 C 7.945312 -11.875 9.253906 -11.328125 10.234375 -10.234375 C 11.210938 -9.140625 11.703125 -7.671875 11.703125 -5.828125 C 11.703125 -3.984375 11.210938 -2.507812 10.234375 -1.40625 C 9.253906 -0.3125 7.945312 0.234375 6.3125 0.234375 C 4.664062 0.234375 3.351562 -0.3125 2.375 -1.40625 C 1.394531 -2.507812 0.90625 -3.984375 0.90625 -5.828125 C 0.90625 -7.671875 1.394531 -9.140625 2.375 -10.234375 C 3.351562 -11.328125 4.664062 -11.875 6.3125 -11.875 Z M 6.3125 -11.875 "/>
</symbol>
<symbol overflow="visible" id="glyph0-2">
<path style="stroke:none;" d="M 1.578125 -11.671875 L 3.15625 -11.671875 L 3.15625 -6.890625 L 8.890625 -6.890625 L 8.890625 -11.671875 L 10.46875 -11.671875 L 10.46875 0 L 8.890625 0 L 8.890625 -5.5625 L 3.15625 -5.5625 L 3.15625 0 L 1.578125 0 Z M 1.578125 -11.671875 "/>
</symbol>
<symbol overflow="visible" id="glyph0-3">
<path style="stroke:none;" d="M 1.578125 -11.671875 L 3.703125 -11.671875 L 8.875 -1.90625 L 8.875 -11.671875 L 10.40625 -11.671875 L 10.40625 0 L 8.28125 0 L 3.109375 -9.765625 L 3.109375 0 L 1.578125 0 Z M 1.578125 -11.671875 "/>
</symbol>
<symbol overflow="visible" id="glyph1-0">
<path style="stroke:none;" d="M 0.640625 2.296875 L 0.640625 -9.171875 L 7.140625 -9.171875 L 7.140625 2.296875 Z M 1.375 1.578125 L 6.421875 1.578125 L 6.421875 -8.4375 L 1.375 -8.4375 Z M 1.375 1.578125 "/>
</symbol>
<symbol overflow="visible" id="glyph1-1">
<path style="stroke:none;" d="M 2.5 -1.078125 L 6.96875 -1.078125 L 6.96875 0 L 0.953125 0 L 0.953125 -1.078125 C 1.441406 -1.578125 2.101562 -2.25 2.9375 -3.09375 C 3.78125 -3.945312 4.3125 -4.5 4.53125 -4.75 C 4.9375 -5.207031 5.21875 -5.597656 5.375 -5.921875 C 5.539062 -6.242188 5.625 -6.554688 5.625 -6.859375 C 5.625 -7.367188 5.445312 -7.78125 5.09375 -8.09375 C 4.75 -8.40625 4.289062 -8.5625 3.71875 -8.5625 C 3.3125 -8.5625 2.882812 -8.492188 2.4375 -8.359375 C 2 -8.222656 1.523438 -8.007812 1.015625 -7.71875 L 1.015625 -9.015625 C 1.535156 -9.222656 2.019531 -9.378906 2.46875 -9.484375 C 2.914062 -9.597656 3.320312 -9.65625 3.6875 -9.65625 C 4.675781 -9.65625 5.460938 -9.40625 6.046875 -8.90625 C 6.628906 -8.414062 6.921875 -7.757812 6.921875 -6.9375 C 6.921875 -6.550781 6.847656 -6.179688 6.703125 -5.828125 C 6.554688 -5.484375 6.289062 -5.078125 5.90625 -4.609375 C 5.800781 -4.484375 5.460938 -4.125 4.890625 -3.53125 C 4.328125 -2.945312 3.53125 -2.128906 2.5 -1.078125 Z M 2.5 -1.078125 "/>
</symbol>
</g>
</defs>
<g id="surface35397">
<rect x="0" y="0" width="300" height="300" style="fill:rgb(100%,100%,100%);fill-opacity:1;stroke:none;"/>
<path style="fill:none;stroke-width:1.2;stroke-linecap:butt;stroke-linejoin:miter;stroke:rgb(0%,0%,0%);stroke-opacity:1;stroke-miterlimit:10;" d="M 200.664062 231.035156 L 173.636719 203.96875 "/>
<path style="fill:none;stroke-width:1.2;stroke-linecap:butt;stroke-linejoin:miter;stroke:rgb(0%,0%,0%);stroke-opacity:1;stroke-miterlimit:10;" d="M 173.636719 203.96875 L 161.589844 218.828125 "/>
<path style="fill:none;stroke-width:1.2;stroke-linecap:butt;stroke-linejoin:miter;stroke:rgb(100%,0%,0%);stroke-opacity:1;stroke-miterlimit:10;" d="M 161.589844 218.828125 L 149.546875 233.683594 "/>
<path style="fill:none;stroke-width:1.2;stroke-linecap:butt;stroke-linejoin:miter;stroke:rgb(0%,0%,0%);stroke-opacity:1;stroke-miterlimit:10;" d="M 173.636719 203.96875 L 203.375 179.917969 "/>
<path style="fill:none;stroke-width:1.2;stroke-linecap:butt;stroke-linejoin:miter;stroke:rgb(100%,0%,0%);stroke-opacity:1;stroke-miterlimit:10;" d="M 152.824219 171.878906 L 163.230469 187.925781 "/>
<path style="fill:none;stroke-width:1.2;stroke-linecap:butt;stroke-linejoin:miter;stroke:rgb(0%,0%,0%);stroke-opacity:1;stroke-miterlimit:10;" d="M 163.230469 187.925781 L 173.636719 203.96875 "/>
<path style="fill:none;stroke-width:1;stroke-linecap:butt;stroke-linejoin:miter;stroke:rgb(0%,0%,0%);stroke-opacity:1;stroke-miterlimit:10;" d="M 113.84375 219.953125 L 113.84375 219.953125 M 116.414062 221.5 L 116.789062 220.527344 M 118.984375 223.046875 L 119.734375 221.101562 M 121.554688 224.59375 L 122.679688 221.675781 M 124.125 226.140625 L 125.625 222.246094 M 126.695312 227.6875 L 128.566406 222.820312 M 129.265625 229.234375 L 131.511719 223.394531 M 131.835938 230.78125 L 134.457031 223.96875 M 134.40625 232.328125 L 137.402344 224.542969 M 136.976562 233.875 L 140.347656 225.117188 M 139.546875 235.421875 L 143.289062 225.691406 M 142.117188 236.96875 L 146.234375 226.265625 M 144.6875 238.515625 L 149.179688 226.839844 M 147.121094 239.980469 L 151.96875 227.382812 "/>
<path style=" stroke:none;fill-rule:nonzero;fill:rgb(100%,100%,100%);fill-opacity:1;" d="M 143.546875 224.183594 L 156.546875 224.183594 L 156.546875 243.183594 L 143.546875 243.183594 Z M 143.546875 224.183594 "/>
<g style="fill:rgb(100%,0%,0%);fill-opacity:1;">
  <use xlink:href="#glyph0-1" x="143.546875" y="239.035156"/>
</g>
<path style="fill:none;stroke-width:1.2;stroke-linecap:butt;stroke-linejoin:miter;stroke:rgb(0%,0%,0%);stroke-opacity:1;stroke-miterlimit:10;" d="M 113.84375 219.953125 L 82.71875 242.183594 "/>
<path style="fill:none;stroke-width:1.2;stroke-linecap:butt;stroke-linejoin:miter;stroke:rgb(0%,0%,0%);stroke-opacity:1;stroke-miterlimit:10;" d="M 115.871094 181.757812 L 113.84375 219.953125 "/>
<path style="fill:none;stroke-width:1.2;stroke-linecap:butt;stroke-linejoin:miter;stroke:rgb(0%,0%,0%);stroke-opacity:1;stroke-miterlimit:10;" d="M 82.71875 242.183594 L 45.929688 231.710938 "/>
<path style="fill:none;stroke-width:1.2;stroke-linecap:butt;stroke-linejoin:miter;stroke:rgb(0%,0%,0%);stroke-opacity:1;stroke-miterlimit:10;" d="M 45.929688 231.710938 L 31.183594 196.417969 "/>
<path style="fill:none;stroke-width:1.2;stroke-linecap:butt;stroke-linejoin:miter;stroke:rgb(0%,0%,0%);stroke-opacity:1;stroke-miterlimit:10;" d="M 31.183594 196.417969 L 49.578125 162.882812 "/>
<path style="fill:none;stroke-width:1.2;stroke-linecap:butt;stroke-linejoin:miter;stroke:rgb(0%,0%,0%);stroke-opacity:1;stroke-miterlimit:10;" d="M 49.578125 162.882812 L 87.269531 156.359375 "/>
<path style="fill:none;stroke-width:1;stroke-linecap:butt;stroke-linejoin:miter;stroke:rgb(0%,0%,0%);stroke-opacity:1;stroke-miterlimit:10;" d="M 115.871094 181.757812 L 115.871094 181.757812 M 114.007812 179.40625 L 113.316406 180.183594 M 112.144531 177.054688 L 110.757812 178.613281 M 110.28125 174.703125 L 108.203125 177.039062 M 108.417969 172.351562 L 105.648438 175.46875 M 106.554688 170 L 103.09375 173.898438 M 104.691406 167.648438 L 100.539062 172.324219 M 102.828125 165.296875 L 97.984375 170.753906 M 100.96875 162.945312 L 95.429688 169.179688 M 99.105469 160.59375 L 92.871094 167.609375 M 97.242188 158.242188 L 90.316406 166.039062 M 95.378906 155.890625 L 87.761719 164.464844 M 93.515625 153.539062 L 85.207031 162.894531 M 91.75 151.3125 L 82.789062 161.40625 "/>
<path style="fill:none;stroke-width:1.2;stroke-linecap:butt;stroke-linejoin:miter;stroke:rgb(0%,0%,0%);stroke-opacity:1;stroke-miterlimit:10;" d="M 115.871094 181.757812 L 134.347656 176.816406 "/>
<path style="fill:none;stroke-width:1.2;stroke-linecap:butt;stroke-linejoin:miter;stroke:rgb(100%,0%,0%);stroke-opacity:1;stroke-miterlimit:10;" d="M 134.347656 176.816406 L 152.824219 171.878906 "/>
<path style=" stroke:none;fill-rule:nonzero;fill:rgb(100%,100%,100%);fill-opacity:1;" d="M 146.824219 162.378906 L 159.824219 162.378906 L 159.824219 181.378906 L 146.824219 181.378906 Z M 146.824219 162.378906 "/>
<g style="fill:rgb(100%,0%,0%);fill-opacity:1;">
  <use xlink:href="#glyph0-1" x="146.824219" y="177.230469"/>
</g>
<path style="fill:none;stroke-width:1.2;stroke-linecap:butt;stroke-linejoin:miter;stroke:rgb(0%,0%,0%);stroke-opacity:1;stroke-miterlimit:10;" d="M 203.375 179.917969 L 239.078125 193.644531 "/>
<path style="fill:none;stroke-width:1.2;stroke-linecap:butt;stroke-linejoin:miter;stroke:rgb(0%,0%,0%);stroke-opacity:1;stroke-miterlimit:10;" d="M 234.632812 194.347656 L 237.613281 213.238281 "/>
<path style="fill:none;stroke-width:1.2;stroke-linecap:butt;stroke-linejoin:miter;stroke:rgb(100%,0%,0%);stroke-opacity:1;stroke-miterlimit:10;" d="M 237.613281 213.238281 L 240.59375 232.128906 "/>
<path style="fill:none;stroke-width:1.2;stroke-linecap:butt;stroke-linejoin:miter;stroke:rgb(0%,0%,0%);stroke-opacity:1;stroke-miterlimit:10;" d="M 243.523438 192.945312 L 246.503906 211.835938 "/>
<path style="fill:none;stroke-width:1.2;stroke-linecap:butt;stroke-linejoin:miter;stroke:rgb(100%,0%,0%);stroke-opacity:1;stroke-miterlimit:10;" d="M 246.503906 211.835938 L 249.484375 230.726562 "/>
<path style="fill:none;stroke-width:1.2;stroke-linecap:butt;stroke-linejoin:miter;stroke:rgb(0%,0%,0%);stroke-opacity:1;stroke-miterlimit:10;" d="M 239.078125 193.644531 L 253.945312 181.621094 "/>
<path style="fill:none;stroke-width:1.2;stroke-linecap:butt;stroke-linejoin:miter;stroke:rgb(100%,0%,0%);stroke-opacity:1;stroke-miterlimit:10;" d="M 253.945312 181.621094 L 268.816406 169.59375 "/>
<path style=" stroke:none;fill-rule:nonzero;fill:rgb(100%,100%,100%);fill-opacity:1;" d="M 239.039062 221.929688 L 252.039062 221.929688 L 252.039062 240.929688 L 239.039062 240.929688 Z M 239.039062 221.929688 "/>
<g style="fill:rgb(100%,0%,0%);fill-opacity:1;">
  <use xlink:href="#glyph0-1" x="239.039062" y="236.78125"/>
</g>
<path style=" stroke:none;fill-rule:nonzero;fill:rgb(100%,100%,100%);fill-opacity:1;" d="M 256.816406 160.09375 L 281.816406 160.09375 L 281.816406 179.09375 L 256.816406 179.09375 Z M 256.816406 160.09375 "/>
<g style="fill:rgb(100%,0%,0%);fill-opacity:1;">
  <use xlink:href="#glyph0-1" x="256.816406" y="174.945312"/>
  <use xlink:href="#glyph0-2" x="269.410156" y="174.945312"/>
</g>
<path style="fill:none;stroke-width:1.2;stroke-linecap:butt;stroke-linejoin:miter;stroke:rgb(0%,0%,0%);stroke-opacity:1;stroke-miterlimit:10;" d="M 84.746094 102.75 L 96.117188 66.230469 "/>
<path style="fill:none;stroke-width:1.2;stroke-linecap:butt;stroke-linejoin:miter;stroke:rgb(0%,0%,0%);stroke-opacity:1;stroke-miterlimit:10;" d="M 94.476562 101.773438 L 103.570312 72.558594 "/>
<path style="fill:none;stroke-width:1.2;stroke-linecap:butt;stroke-linejoin:miter;stroke:rgb(0%,0%,0%);stroke-opacity:1;stroke-miterlimit:10;" d="M 110.6875 130.859375 L 84.746094 102.75 "/>
<path style="fill:none;stroke-width:1.2;stroke-linecap:butt;stroke-linejoin:miter;stroke:rgb(0%,0%,0%);stroke-opacity:1;stroke-miterlimit:10;" d="M 96.117188 66.230469 L 133.429688 57.816406 "/>
<path style="fill:none;stroke-width:1.2;stroke-linecap:butt;stroke-linejoin:miter;stroke:rgb(0%,0%,0%);stroke-opacity:1;stroke-miterlimit:10;" d="M 133.429688 57.816406 L 159.371094 85.921875 "/>
<path style="fill:none;stroke-width:1.2;stroke-linecap:butt;stroke-linejoin:miter;stroke:rgb(0%,0%,0%);stroke-opacity:1;stroke-miterlimit:10;" d="M 129.410156 66.730469 L 150.164062 89.214844 "/>
<path style="fill:none;stroke-width:1.2;stroke-linecap:butt;stroke-linejoin:miter;stroke:rgb(0%,0%,0%);stroke-opacity:1;stroke-miterlimit:10;" d="M 159.371094 85.921875 L 148.003906 122.445312 "/>
<path style="fill:none;stroke-width:1.2;stroke-linecap:butt;stroke-linejoin:miter;stroke:rgb(0%,0%,0%);stroke-opacity:1;stroke-miterlimit:10;" d="M 159.371094 85.921875 L 196.683594 77.507812 "/>
<path style="fill:none;stroke-width:1.2;stroke-linecap:butt;stroke-linejoin:miter;stroke:rgb(0%,0%,0%);stroke-opacity:1;stroke-miterlimit:10;" d="M 148.003906 122.445312 L 110.6875 130.859375 "/>
<path style="fill:none;stroke-width:1.2;stroke-linecap:butt;stroke-linejoin:miter;stroke:rgb(0%,0%,0%);stroke-opacity:1;stroke-miterlimit:10;" d="M 142.292969 114.503906 L 112.441406 121.238281 "/>
<path style="fill:none;stroke-width:1.2;stroke-linecap:butt;stroke-linejoin:miter;stroke:rgb(0%,0%,0%);stroke-opacity:1;stroke-miterlimit:10;" d="M 196.683594 77.507812 L 209.65625 91.5625 "/>
<path style="fill:none;stroke-width:1.2;stroke-linecap:butt;stroke-linejoin:miter;stroke:rgb(0%,0%,100%);stroke-opacity:1;stroke-miterlimit:10;" d="M 209.65625 91.5625 L 222.628906 105.617188 "/>
<path style=" stroke:none;fill-rule:nonzero;fill:rgb(100%,100%,100%);fill-opacity:1;" d="M 206.628906 94.117188 L 239.628906 94.117188 L 239.628906 117.117188 L 206.628906 117.117188 Z M 206.628906 94.117188 "/>
<g style="fill:rgb(0%,0%,100%);fill-opacity:1;">
  <use xlink:href="#glyph0-3" x="206.628906" y="108.96875"/>
  <use xlink:href="#glyph0-2" x="218.597656" y="108.96875"/>
</g>
<g style="fill:rgb(0%,0%,100%);fill-opacity:1;">
  <use xlink:href="#glyph1-1" x="230.628906" y="113.851562"/>
</g>
</g>
</svg>

<svg xmlns="http://www.w3.org/2000/svg" xmlns:xlink="http://www.w3.org/1999/xlink" width="300pt" height="300pt" viewBox="0 0 300 300"><defs><symbol overflow="visible"><path d="M.797 2.828v-14.11h8V2.83zm.906-.89h6.203v-12.33H1.703zm0 0"/></symbol><symbol overflow="visible" id="a"><path d="M6.313-10.594c-1.15 0-2.06.43-2.735 1.28-.68.857-1.015 2.017-1.015 3.486 0 1.47.335 2.633 1.015 3.484.676.856 1.586 1.28 2.735 1.28 1.144.002 2.05-.424 2.718-1.28.665-.85 1-2.015 1-3.484 0-1.47-.335-2.63-1-3.484-.667-.852-1.573-1.282-2.717-1.282zm0-1.28c1.632 0 2.94.546 3.92 1.64.978 1.093 1.47 2.562 1.47 4.406 0 1.844-.492 3.32-1.47 4.422-.98 1.093-2.288 1.64-3.92 1.64-1.65 0-2.96-.546-3.938-1.64-.98-1.102-1.47-2.578-1.47-4.422 0-1.844.49-3.313 1.47-4.406.977-1.094 2.29-1.64 3.938-1.64zm0 0"/></symbol><symbol overflow="visible" id="b"><path d="M1.578-11.672h1.578v4.78H8.89v-4.78h1.58V0H8.89v-5.563H3.157V0H1.578zm0 0"/></symbol><symbol overflow="visible" id="c"><path d="M1.578-11.672h2.125l5.172 9.766v-9.766h1.53V0H8.282L3.11-9.766V0H1.577zm0 0"/></symbol><symbol overflow="visible"><path d="M.64 2.297v-11.47h6.5v11.47zm.735-.72h5.047V-8.436H1.375zm0 0"/></symbol><symbol overflow="visible" id="d"><path d="M2.5-1.078h4.47V0H.952v-1.078c.488-.5 1.15-1.172 1.985-2.016C3.78-3.944 4.312-4.5 4.53-4.75c.407-.457.69-.848.845-1.172.164-.32.25-.633.25-.937 0-.507-.18-.92-.53-1.234-.345-.312-.806-.47-1.376-.47-.408.002-.837.072-1.283.205-.437.137-.914.352-1.42.64v-1.296c.518-.207 1.003-.363 1.452-.468.444-.114.85-.172 1.217-.172.99 0 1.774.25 2.36.75.582.492.875 1.148.875 1.97 0 .385-.074.756-.22 1.108-.147.344-.413.75-.796 1.22-.105.124-.445.483-1.015 1.077-.562.585-1.36 1.4-2.39 2.452zm0 0"/></symbol></defs><g><path fill="#fff" d="M0 0h300v300H0z"/><path d="M200.664 231.035l-27.027-27.066M173.637 203.97l-12.047 14.858" stroke-width="1.2" stroke="#000" stroke-miterlimit="10" fill="none"/><path d="M161.59 218.828l-12.043 14.856" stroke-width="1.2" stroke="#f00" stroke-miterlimit="10" fill="none"/><path d="M173.637 203.97l29.738-24.052" stroke-width="1.2" stroke="#000" stroke-miterlimit="10" fill="none"/><path d="M152.824 171.88l10.406 16.046" stroke-width="1.2" stroke="#f00" stroke-miterlimit="10" fill="none"/><path d="M163.23 187.926l10.407 16.043" stroke-width="1.2" stroke="#000" stroke-miterlimit="10" fill="none"/><path d="M113.844 219.953m2.57 1.547l.375-.973m2.194 2.52l.75-1.945m1.82 3.492l1.126-2.918m1.445 4.465l1.5-3.894m1.07 5.44l1.87-4.866m.7 6.414l2.247-5.84m.324 7.387l2.62-6.81m-.05 8.358l2.996-7.785m-.425 9.332l3.37-8.758m-.8 10.305l3.742-9.73m-1.173 11.277l4.117-10.704m-1.547 12.25l4.493-11.676m-2.06 13.14l4.85-12.597" stroke="#000" stroke-miterlimit="10" fill="none"/><path d="M143.547 224.184h13v19h-13zm0 0" fill="#fff"/><use xlink:href="#a" x="143.547" y="239.035" fill="#f00"/><path d="M113.844 219.953l-31.125 22.23M115.87 181.758l-2.026 38.195M82.72 242.184L45.93 231.71M45.93 231.71L31.184 196.42M31.184 196.418l18.394-33.535M49.578 162.883l37.692-6.524" stroke-width="1.2" stroke="#000" stroke-miterlimit="10" fill="none"/><path d="M115.87 181.758m-1.862-2.352l-.692.778m-1.17-3.13l-1.388 1.56m-.477-3.91l-2.077 2.335m.215-4.688l-2.77 3.117m.907-5.47l-3.46 3.898m1.596-6.25l-4.15 4.676m2.288-7.027l-4.844 5.457m2.985-7.81l-5.54 6.236m3.675-8.586l-6.234 7.015m4.372-9.368l-6.926 7.797m5.063-10.15l-7.618 8.575m5.754-10.926l-8.31 9.355m6.544-11.583l-8.96 10.094" stroke="#000" stroke-miterlimit="10" fill="none"/><path d="M115.87 181.758l18.478-4.942" stroke-width="1.2" stroke="#000" stroke-miterlimit="10" fill="none"/><path d="M134.348 176.816l18.476-4.937" stroke-width="1.2" stroke="#f00" stroke-miterlimit="10" fill="none"/><path d="M146.824 162.38h13v19h-13zm0 0" fill="#fff"/><use xlink:href="#a" x="146.824" y="177.23" fill="#f00"/><path d="M203.375 179.918l35.703 13.727M234.633 194.348l2.98 18.89" stroke-width="1.2" stroke="#000" stroke-miterlimit="10" fill="none"/><path d="M237.613 213.238l2.98 18.89" stroke-width="1.2" stroke="#f00" stroke-miterlimit="10" fill="none"/><path d="M243.523 192.945l2.98 18.89" stroke-width="1.2" stroke="#000" stroke-miterlimit="10" fill="none"/><path d="M246.504 211.836l2.98 18.89" stroke-width="1.2" stroke="#f00" stroke-miterlimit="10" fill="none"/><path d="M239.078 193.645l14.867-12.024" stroke-width="1.2" stroke="#000" stroke-miterlimit="10" fill="none"/><path d="M253.945 181.62l14.87-12.026" stroke-width="1.2" stroke="#f00" stroke-miterlimit="10" fill="none"/><path d="M239.04 221.93h13v19h-13zm0 0" fill="#fff"/><use xlink:href="#a" x="239.039" y="236.781" fill="#f00"/><path d="M256.816 160.094h25v19h-25zm0 0" fill="#fff"/><g fill="#f00"><use xlink:href="#a" x="256.816" y="174.945"/><use xlink:href="#b" x="269.41" y="174.945"/></g><path d="M84.746 102.75l11.37-36.52M94.477 101.773l9.093-29.214M110.688 130.86l-25.942-28.11M96.117 66.23l37.313-8.414M133.43 57.816l25.94 28.106M129.41 66.73l20.754 22.485M159.37 85.922l-11.366 36.523M159.37 85.922l37.314-8.414M148.004 122.445l-37.316 8.414M142.293 114.504l-29.852 6.734M196.684 77.508l12.972 14.055" stroke-width="1.2" stroke="#000" stroke-miterlimit="10" fill="none"/><path d="M209.656 91.563l12.973 14.054" stroke-width="1.2" stroke="#00f" stroke-miterlimit="10" fill="none"/><path d="M206.63 94.117h33v23h-33zm0 0" fill="#fff"/><g fill="#00f"><use xlink:href="#c" x="206.629" y="108.969"/><use xlink:href="#b" x="218.598" y="108.969"/></g><use xlink:href="#d" x="230.629" y="113.852" fill="#00f"/></g></svg>
